16-manifest/assets/images/sprite.svg

<svg width="0" height="0" class="hidden">
  <symbol  xmlns="http://www.w3.org/2000/svg" viewBox="0 0 24 12" id="Arrow-right">
    <path d="M23.5303 6.53033C23.8232 6.23744 23.8232 5.76257 23.5303 5.46967L18.7574 0.696701C18.4645 0.403807 17.9896 0.403807 17.6967 0.696701C17.4038 0.989594 17.4038 1.46447 17.6967 1.75736L21.9393 6L17.6967 10.2426C17.4038 10.5355 17.4038 11.0104 17.6967 11.3033C17.9896 11.5962 18.4645 11.5962 18.7574 11.3033L23.5303 6.53033ZM-6.55671e-08 6.75L23 6.75L23 5.25L6.55671e-08 5.25L-6.55671e-08 6.75Z" ></path>
  </symbol>
  <symbol  xmlns="http://www.w3.org/2000/svg" viewBox="0 0 14 24" id="facebook">
    <path d="M12.5845 13.5L13.251 9.15656H9.08338V6.33797C9.08338 5.14969 9.66557 3.99141 11.5321 3.99141H13.4268V0.293438C13.4268 0.293438 11.7074 0 10.0635 0C6.63135 0 4.38791 2.08031 4.38791 5.84625V9.15656H0.572754V13.5H4.38791V24H9.08338V13.5H12.5845Z" ></path>
  </symbol>
  <symbol  xmlns="http://www.w3.org/2000/svg" viewBox="0 0 24 24" id="instagram">
    <path d="M12.0029 5.8467C8.59691 5.8467 5.84962 8.594 5.84962 12C5.84962 15.406 8.59691 18.1533 12.0029 18.1533C15.4089 18.1533 18.1562 15.406 18.1562 12C18.1562 8.594 15.4089 5.8467 12.0029 5.8467ZM12.0029 16.0004C9.80187 16.0004 8.00247 14.2064 8.00247 12C8.00247 9.7936 9.79651 7.99955 12.0029 7.99955C14.2093 7.99955 16.0034 9.7936 16.0034 12C16.0034 14.2064 14.204 16.0004 12.0029 16.0004ZM19.8431 5.595C19.8431 6.39295 19.2005 7.03024 18.4079 7.03024C17.61 7.03024 16.9727 6.38759 16.9727 5.595C16.9727 4.80241 17.6153 4.15977 18.4079 4.15977C19.2005 4.15977 19.8431 4.80241 19.8431 5.595ZM23.9186 7.05166C23.8275 5.12909 23.3884 3.42608 21.9799 2.02298C20.5768 0.619882 18.8738 0.180743 16.9513 0.0843468C14.9698 -0.0281156 9.03069 -0.0281156 7.04922 0.0843468C5.132 0.175388 3.429 0.614526 2.02054 2.01763C0.612085 3.42073 0.178302 5.12373 0.0819054 7.0463C-0.030557 9.02778 -0.030557 14.9669 0.0819054 16.9483C0.172946 18.8709 0.612085 20.5739 2.02054 21.977C3.429 23.3801 5.12665 23.8193 7.04922 23.9157C9.03069 24.0281 14.9698 24.0281 16.9513 23.9157C18.8738 23.8246 20.5768 23.3855 21.9799 21.977C23.383 20.5739 23.8222 18.8709 23.9186 16.9483C24.031 14.9669 24.031 9.03314 23.9186 7.05166ZM21.3587 19.0744C20.941 20.1241 20.1323 20.9327 19.0773 21.3558C17.4975 21.9824 13.7488 21.8378 12.0029 21.8378C10.2571 21.8378 6.50297 21.977 4.9285 21.3558C3.87885 20.9381 3.07019 20.1294 2.64712 19.0744C2.02054 17.4946 2.16514 13.7458 2.16514 12C2.16514 10.2542 2.0259 6.50006 2.64712 4.92558C3.06484 3.87593 3.87349 3.06728 4.9285 2.6442C6.50833 2.01763 10.2571 2.16222 12.0029 2.16222C13.7488 2.16222 17.5029 2.02298 19.0773 2.6442C20.127 3.06192 20.9356 3.87058 21.3587 4.92558C21.9853 6.50541 21.8407 10.2542 21.8407 12C21.8407 13.7458 21.9853 17.4999 21.3587 19.0744Z" ></path>
  </symbol>
  <symbol  xmlns="http://www.w3.org/2000/svg" viewBox="0 0 24 24" id="linkedin">
    <path d="M5.37226 24H0.396437V7.97643H5.37226V24ZM2.88167 5.79066C1.29056 5.79066 0 4.47278 0 2.88167C1.13885e-08 2.1174 0.303604 1.38444 0.844022 0.844022C1.38444 0.303604 2.1174 0 2.88167 0C3.64594 0 4.3789 0.303604 4.91932 0.844022C5.45974 1.38444 5.76334 2.1174 5.76334 2.88167C5.76334 4.47278 4.47224 5.79066 2.88167 5.79066ZM23.9952 24H19.0301V16.1998C19.0301 14.3409 18.9926 11.9569 16.443 11.9569C13.856 11.9569 13.4596 13.9766 13.4596 16.0659V24H8.48912V7.97643H13.2614V10.1622H13.331C13.9953 8.90323 15.618 7.57463 18.039 7.57463C23.0748 7.57463 24.0005 10.8908 24.0005 15.198V24H23.9952Z" ></path>
  </symbol>
  <symbol  xmlns="http://www.w3.org/2000/svg" viewBox="0 0 18 16" id="search">
    <path fill-rule="evenodd" clip-rule="evenodd" d="M13.8942 11.0715L17.6712 14.6313C17.8399 14.8079 17.8316 15.0783 17.6524 15.2454L16.9914 15.8684C16.9027 15.9526 16.7821 16 16.6562 16C16.5303 16 16.4096 15.9526 16.3209 15.8684L12.5439 12.3085C12.4394 12.21 12.3446 12.1028 12.2606 11.9881L11.5524 11.0982C10.3806 11.9801 8.92549 12.4602 7.42595 12.4598C4.33594 12.4699 1.65084 10.461 0.960303 7.62231C0.269767 4.78365 1.75809 1.87288 4.54414 0.613257C7.3302 -0.646363 10.6704 0.0813446 12.5873 2.36555C14.5042 4.64977 14.4862 7.88086 12.5439 10.1459L13.4881 10.76C13.6356 10.849 13.7718 10.9535 13.8942 11.0715ZM2.70508 6.23017C2.70508 8.68773 4.81889 10.68 7.42641 10.68C8.67859 10.68 9.87948 10.2112 10.7649 9.37666C11.6503 8.54216 12.1477 7.41034 12.1477 6.23017C12.1477 3.77262 10.0339 1.78037 7.42641 1.78037C4.81889 1.78037 2.70508 3.77262 2.70508 6.23017Z" ></path>
  </symbol>
  <symbol  xmlns="http://www.w3.org/2000/svg" viewBox="0 0 20 17" id="twitter">
    <path d="M19.9708 2.46378C19.4547 3.15213 18.8309 3.75258 18.1235 4.24195C18.1235 4.42177 18.1235 4.60158 18.1235 4.79139C18.1292 8.0568 16.8249 11.1879 14.5029 13.4828C12.181 15.7777 9.03567 17.0443 5.77211 16.9988C3.88538 17.0051 2.02281 16.5743 0.330301 15.7401C0.239042 15.7003 0.18018 15.61 0.180527 15.5103V15.4005C0.180527 15.257 0.296758 15.1407 0.440136 15.1407C2.29475 15.0796 4.0832 14.4366 5.55244 13.3026C3.87376 13.2688 2.36338 12.2744 1.66829 10.7453C1.63318 10.6617 1.64411 10.5659 1.69713 10.4925C1.75016 10.419 1.83761 10.3785 1.9279 10.3856C2.43809 10.4369 2.95337 10.3894 3.44561 10.2458C1.59249 9.86109 0.200074 8.32265 0.000797149 6.43969C-0.00628542 6.34936 0.0341943 6.26187 0.107613 6.20882C0.181031 6.15577 0.276775 6.14483 0.360256 6.17996C0.857554 6.39939 1.39439 6.51496 1.93788 6.51961C0.314106 5.45384 -0.387258 3.42672 0.230452 1.58469C0.294214 1.4057 0.447402 1.27347 0.633723 1.2366C0.820043 1.19972 1.01201 1.26365 1.13908 1.40487C3.33027 3.73695 6.34099 5.12662 9.53645 5.28088C9.4546 4.95427 9.41434 4.61862 9.41663 4.28191C9.44652 2.51636 10.5389 0.943567 12.1825 0.299861C13.826 -0.343846 15.6953 0.0689272 16.9153 1.34494C17.747 1.18651 18.551 0.907164 19.3018 0.515789C19.3568 0.481454 19.4265 0.481454 19.4815 0.515789C19.5158 0.57081 19.5158 0.640583 19.4815 0.695604C19.1178 1.52835 18.5035 2.2268 17.7241 2.69355C18.4066 2.6144 19.0771 2.45341 19.7211 2.21404C19.7754 2.17713 19.8466 2.17713 19.9009 2.21404C19.9463 2.23482 19.9802 2.27457 19.9937 2.32269C20.0072 2.37081 19.9988 2.42242 19.9708 2.46378Z" ></path>
  </symbol>
</svg>

<svg width="0" height="0" class="hidden">
  <symbol xmlns="http://www.w3.org/2000/svg" viewBox="0 0 14 24" id="facebook">
    <path d="m12.585 13.5.666-4.343H9.083V6.338c0-1.188.583-2.347 2.45-2.347h1.894V.293S11.707 0 10.063 0C6.631 0 4.388 2.08 4.388 5.846v3.31H.573V13.5h3.815V24h4.695V13.5h3.502Z"></path>
  </symbol>
  <symbol xmlns="http://www.w3.org/2000/svg" viewBox="0 0 24 24" id="instagram">
    <path d="M12.003 5.847A6.144 6.144 0 0 0 5.85 12a6.144 6.144 0 0 0 6.153 6.153A6.144 6.144 0 0 0 18.156 12a6.144 6.144 0 0 0-6.153-6.153Zm0 10.153c-2.201 0-4-1.794-4-4s1.794-4 4-4 4 1.794 4 4-1.799 4-4 4Zm7.84-10.405c0 .798-.642 1.435-1.435 1.435a1.435 1.435 0 1 1 1.435-1.435Zm4.076 1.457c-.091-1.923-.53-3.626-1.94-5.029C20.578.62 18.875.181 16.952.084c-1.981-.112-7.92-.112-9.902 0-1.917.091-3.62.53-5.028 1.934C.612 3.42.178 5.124.08 7.046c-.112 1.982-.112 7.92 0 9.902.092 1.923.531 3.626 1.94 5.029 1.408 1.403 3.106 1.842 5.028 1.939 1.982.112 7.92.112 9.902 0 1.923-.091 3.626-.53 5.029-1.939 1.403-1.403 1.842-3.106 1.939-5.029.112-1.981.112-7.915 0-9.896Zm-2.56 12.022a4.05 4.05 0 0 1-2.282 2.282c-1.58.626-5.328.482-7.074.482-1.746 0-5.5.139-7.075-.482a4.05 4.05 0 0 1-2.28-2.282c-.627-1.58-.483-5.328-.483-7.074 0-1.746-.14-5.5.482-7.074a4.05 4.05 0 0 1 2.281-2.282c1.58-.626 5.33-.482 7.075-.482 1.746 0 5.5-.139 7.074.482a4.05 4.05 0 0 1 2.282 2.282c.626 1.58.482 5.328.482 7.074 0 1.746.144 5.5-.482 7.074Z"></path>
  </symbol>
  <symbol xmlns="http://www.w3.org/2000/svg" viewBox="0 0 24 24" id="linkedin">
    <path d="M5.372 24H.396V7.976h4.976V24ZM2.882 5.79C1.29 5.79 0 4.474 0 2.883a2.882 2.882 0 1 1 5.763 0c0 1.59-1.29 2.909-2.881 2.909ZM23.995 24H19.03v-7.8c0-1.86-.037-4.243-2.587-4.243-2.587 0-2.983 2.02-2.983 4.109V24H8.49V7.976h4.771v2.186h.07c.664-1.259 2.287-2.587 4.708-2.587 5.036 0 5.961 3.316 5.961 7.623V24h-.005Z"></path>
  </symbol>
  <symbol xmlns="http://www.w3.org/2000/svg" viewBox="0 0 20 17" id="twitter">
    <path d="M19.97 2.464a7.991 7.991 0 0 1-1.846 1.778v.55a12.19 12.19 0 0 1-3.621 8.69A12.178 12.178 0 0 1 5.773 17 12.217 12.217 0 0 1 .33 15.74a.25.25 0 0 1-.15-.23v-.11a.26.26 0 0 1 .26-.26 8.844 8.844 0 0 0 5.112-1.837 4.363 4.363 0 0 1-3.884-2.558.26.26 0 0 1 .26-.36c.51.052 1.025.004 1.518-.14A4.355 4.355 0 0 1 0 6.44a.26.26 0 0 1 .36-.26c.497.22 1.033.335 1.577.34A4.277 4.277 0 0 1 .23 1.585a.54.54 0 0 1 .91-.18A12.339 12.339 0 0 0 9.535 5.28a3.998 3.998 0 0 1-.12-1 4.352 4.352 0 0 1 7.499-2.937 8.674 8.674 0 0 0 2.387-.828.17.17 0 0 1 .18 0 .17.17 0 0 1 0 .18 4.365 4.365 0 0 1-1.758 1.998 8.563 8.563 0 0 0 1.997-.48.16.16 0 0 1 .18 0 .17.17 0 0 1 .07.25Z"></path>
  </symbol>
</svg>
